static/img/kroki/259569a4b336a8e8ef402f5571176907.svg

<?xml version="1.0" encoding="us-ascii" standalone="no"?><svg xmlns="http://www.w3.org/2000/svg" xmlns:xlink="http://www.w3.org/1999/xlink" contentStyleType="text/css" height="374px" preserveAspectRatio="none" style="width:338px;height:374px;" version="1.1" viewBox="0 0 338 374" width="338px" zoomAndPan="magnify"><defs/><g><!--class onelogin_resource--><g id="elem_onelogin_resource"><rect codeLine="23" fill="#3D176E" height="39.7891" id="onelogin_resource" rx="2.5" ry="2.5" style="stroke:#000D19;stroke-width:0.5;" width="194" x="7" y="167.79"/><ellipse cx="22" cy="187.6845" fill="#ADD1B2" rx="11" ry="11" style="stroke:#181818;stroke-width:1.0;"/><path d="M24.9688,193.3252 Q24.3906,193.622 23.75,193.7627 Q23.1094,193.9189 22.4063,193.9189 Q19.9063,193.9189 18.5781,192.2783 Q17.2656,190.622 17.2656,187.497 Q17.2656,184.372 18.5781,182.7158 Q19.9063,181.0595 22.4063,181.0595 Q23.1094,181.0595 23.75,181.2158 Q24.4063,181.372 24.9688,181.6689 L24.9688,184.3877 Q24.3438,183.8095 23.75,183.5439 Q23.1563,183.2627 22.5313,183.2627 Q21.1875,183.2627 20.5,184.3408 Q19.8125,185.4033 19.8125,187.497 Q19.8125,189.5908 20.5,190.6689 Q21.1875,191.7314 22.5313,191.7314 Q23.1563,191.7314 23.75,191.4658 Q24.3438,191.1845 24.9688,190.6064 L24.9688,193.3252 Z " fill="#000000"/><text fill="#D9B8FF" font-family="Helvetica" font-size="17" lengthAdjust="spacing" textLength="152" x="41" y="193.5698">onelogin_resource</text></g><!--class onelogin_user--><g id="elem_onelogin_user"><rect codeLine="26" fill="#3D176E" height="39.7891" id="onelogin_user" rx="2.5" ry="2.5" style="stroke:#000D19;stroke-width:0.5;" width="159" x="59.5" y="328.58"/><ellipse cx="74.5" cy="348.4745" fill="#ADD1B2" rx="11" ry="11" style="stroke:#181818;stroke-width:1.0;"/><path d="M77.4688,354.1152 Q76.8906,354.412 76.25,354.5527 Q75.6094,354.7089 74.9063,354.7089 Q72.4063,354.7089 71.0781,353.0683 Q69.7656,351.412 69.7656,348.287 Q69.7656,345.162 71.0781,343.5058 Q72.4063,341.8495 74.9063,341.8495 Q75.6094,341.8495 76.25,342.0058 Q76.9063,342.162 77.4688,342.4589 L77.4688,345.1777 Q76.8438,344.5995 76.25,344.3339 Q75.6563,344.0527 75.0313,344.0527 Q73.6875,344.0527 73,345.1308 Q72.3125,346.1933 72.3125,348.287 Q72.3125,350.3808 73,351.4589 Q73.6875,352.5214 75.0313,352.5214 Q75.6563,352.5214 76.25,352.2558 Q76.8438,351.9745 77.4688,351.3964 L77.4688,354.1152 Z " fill="#000000"/><text fill="#D9B8FF" font-family="Helvetica" font-size="17" lengthAdjust="spacing" textLength="117" x="93.5" y="354.3598">onelogin_user</text></g><!--class resource--><g id="elem_resource"><rect codeLine="29" fill="#3D176E" height="39.7891" id="resource" rx="2.5" ry="2.5" style="stroke:#000D19;stroke-width:0.5;" width="113" x="218.5" y="7"/><ellipse cx="233.5" cy="26.8945" fill="#ADD1B2" rx="11" ry="11" style="stroke:#181818;stroke-width:1.0;"/><path d="M236.4688,32.5352 Q235.8906,32.832 235.25,32.9727 Q234.6094,33.1289 233.9063,33.1289 Q231.4063,33.1289 230.0781,31.4883 Q228.7656,29.832 228.7656,26.707 Q228.7656,23.582 230.0781,21.9258 Q231.4063,20.2695 233.9063,20.2695 Q234.6094,20.2695 235.25,20.4258 Q235.9063,20.582 236.4688,20.8789 L236.4688,23.5977 Q235.8438,23.0195 235.25,22.7539 Q234.6563,22.4727 234.0313,22.4727 Q232.6875,22.4727 232,23.5508 Q231.3125,24.6133 231.3125,26.707 Q231.3125,28.8008 232,29.8789 Q232.6875,30.9414 234.0313,30.9414 Q234.6563,30.9414 235.25,30.6758 Q235.8438,30.3945 236.4688,29.8164 L236.4688,32.5352 Z " fill="#000000"/><text fill="#D9B8FF" font-family="Helvetica" font-size="17" lengthAdjust="spacing" textLength="71" x="252.5" y="32.7798">resource</text></g><!--class user--><g id="elem_user"><rect codeLine="32" fill="#3D176E" height="39.7891" id="user" rx="2.5" ry="2.5" style="stroke:#000D19;stroke-width:0.5;" width="78" x="236" y="167.79"/><ellipse cx="251" cy="187.6845" fill="#ADD1B2" rx="11" ry="11" style="stroke:#181818;stroke-width:1.0;"/><path d="M253.9688,193.3252 Q253.3906,193.622 252.75,193.7627 Q252.1094,193.9189 251.4063,193.9189 Q248.9063,193.9189 247.5781,192.2783 Q246.2656,190.622 246.2656,187.497 Q246.2656,184.372 247.5781,182.7158 Q248.9063,181.0595 251.4063,181.0595 Q252.1094,181.0595 252.75,181.2158 Q253.4063,181.372 253.9688,181.6689 L253.9688,184.3877 Q253.3438,183.8095 252.75,183.5439 Q252.1563,183.2627 251.5313,183.2627 Q250.1875,183.2627 249.5,184.3408 Q248.8125,185.4033 248.8125,187.497 Q248.8125,189.5908 249.5,190.6689 Q250.1875,191.7314 251.5313,191.7314 Q252.1563,191.7314 252.75,191.4658 Q253.3438,191.1845 253.9688,190.6064 L253.9688,193.3252 Z " fill="#000000"/><text fill="#D9B8FF" font-family="Helvetica" font-size="17" lengthAdjust="spacing" textLength="36" x="270" y="193.5698">user</text></g><!--reverse link onelogin_resource to onelogin_user--><g id="link_onelogin_resource_onelogin_user"><path codeLine="35" d="M112.0961,225.4177 C118.8261,255.9377 128.03,297.69 134.76,328.25 " fill="none" id="onelogin_resource-backto-onelogin_user" style="stroke:#FFAF37;stroke-width:2.0;"/><polygon fill="none" points="108.22,207.84,106.2368,226.7097,117.9553,224.1257,108.22,207.84" style="stroke:#FFAF37;stroke-width:2.0;"/></g><!--reverse link user to onelogin_user--><g id="link_user_onelogin_user"><path codeLine="36" d="M246.8909,221.511 C220.7509,252.031 181.64,297.69 155.46,328.25 " fill="none" id="user-backto-onelogin_user" style="stroke:#FFAF37;stroke-width:2.0;"/><polygon fill="none" points="258.6,207.84,242.3339,217.608,251.4479,225.4141,258.6,207.84" style="stroke:#FFAF37;stroke-width:2.0;"/></g><!--reverse link resource to user--><g id="link_resource_user"><path codeLine="37" d="M275,65.05 C275,95.57 275,136.9 275,167.46 " fill="none" id="resource-backto-user" style="stroke:#FFAF37;stroke-width:2.0;"/><polygon fill="none" points="275,47.05,269,65.05,281,65.05,275,47.05" style="stroke:#FFAF37;stroke-width:2.0;"/></g><!--SRC=[XP3BReCm44NtV8Mbh96WKKkGkacHgdOJLKttbS5Zi00F6fj6wUFV6v8-74EIxPpZEtTSAG4CsivkMGjj3cG2KolTSU8jMnBX9iC6YSsav7AU-F0UjRqeh7WBx06QDx2guBxnKgcYrc0CktBG7I_gah3NuX1lYMkpGw2jOsKDDsPfBQcyj-2K4Mc-aD8t_T3PNCJ93Omq907qeqHH9EBKLowkEdltdx5Mxy1YzzDMQ65KSxHYRvrjEHXEoT6Xl_nanoSkXD8bktPcpuTEf86EvkkA2zmCjkIDSTSO2mHejnraewiWNGYPJCgFf-IW6BwEeOO6IwLV2GpsL03x288l7_PcrzC1K_A_Cywy_Gp3y3WksFjJm7krdtq3]--></g></svg>

<svg xmlns="http://www.w3.org/2000/svg" width="338" height="374" viewBox="0 0 338 374"><rect width="194" height="39.789" x="7" y="167.79" fill="#3D176E" rx="2.5" ry="2.5" style="stroke:#000d19;stroke-width:.5"/><circle cx="22" cy="187.685" r="11" fill="#ADD1B2" style="stroke:#181818;stroke-width:1"/><path d="M24.969 193.325q-.578.297-1.219.438-.64.156-1.344.156-2.5 0-3.828-1.64-1.312-1.657-1.312-4.782t1.312-4.781q1.328-1.656 3.828-1.656.703 0 1.344.156.656.156 1.219.453v2.719q-.625-.578-1.219-.844-.594-.281-1.219-.281-1.343 0-2.031 1.078-.687 1.062-.687 3.156t.687 3.172q.688 1.062 2.031 1.062.625 0 1.219-.265.594-.281 1.219-.86z"/><text x="41" y="193.57" fill="#D9B8FF" font-family="Helvetica" font-size="17" textLength="152">onelogin_resource</text><rect width="159" height="39.789" x="59.5" y="328.58" fill="#3D176E" rx="2.5" ry="2.5" style="stroke:#000d19;stroke-width:.5"/><circle cx="74.5" cy="348.474" r="11" fill="#ADD1B2" style="stroke:#181818;stroke-width:1"/><path d="M77.469 354.115q-.578.297-1.219.438-.64.156-1.344.156-2.5 0-3.828-1.64-1.312-1.657-1.312-4.782t1.312-4.781q1.328-1.656 3.828-1.656.703 0 1.344.156.656.156 1.219.453v2.719q-.625-.579-1.219-.844-.594-.281-1.219-.281-1.344 0-2.031 1.078-.687 1.062-.687 3.156t.687 3.172q.688 1.062 2.031 1.062.625 0 1.219-.265.594-.281 1.219-.86z"/><text x="93.5" y="354.36" fill="#D9B8FF" font-family="Helvetica" font-size="17" textLength="117">onelogin_user</text><rect width="113" height="39.789" x="218.5" y="7" fill="#3D176E" rx="2.5" ry="2.5" style="stroke:#000d19;stroke-width:.5"/><circle cx="233.5" cy="26.895" r="11" fill="#ADD1B2" style="stroke:#181818;stroke-width:1"/><path d="M236.469 32.535q-.578.297-1.219.438-.64.156-1.344.156-2.5 0-3.828-1.64-1.312-1.657-1.312-4.782t1.312-4.781q1.328-1.656 3.828-1.656.703 0 1.344.156.656.156 1.219.453v2.719q-.625-.578-1.219-.844-.594-.281-1.219-.281-1.344 0-2.031 1.078-.687 1.062-.687 3.156t.687 3.172q.688 1.062 2.031 1.062.625 0 1.219-.265.594-.281 1.219-.86z"/><text x="252.5" y="32.78" fill="#D9B8FF" font-family="Helvetica" font-size="17" textLength="71">resource</text><rect width="78" height="39.789" x="236" y="167.79" fill="#3D176E" rx="2.5" ry="2.5" style="stroke:#000d19;stroke-width:.5"/><circle cx="251" cy="187.685" r="11" fill="#ADD1B2" style="stroke:#181818;stroke-width:1"/><path d="M253.969 193.325q-.578.297-1.219.438-.64.156-1.344.156-2.5 0-3.828-1.64-1.312-1.657-1.312-4.782t1.312-4.781q1.328-1.656 3.828-1.656.703 0 1.344.156.656.156 1.219.453v2.719q-.625-.578-1.219-.844-.594-.281-1.219-.281-1.344 0-2.031 1.078-.687 1.062-.687 3.156t.687 3.172q.688 1.062 2.031 1.062.625 0 1.219-.265.594-.281 1.219-.86z"/><text x="270" y="193.57" fill="#D9B8FF" font-family="Helvetica" font-size="17" textLength="36">user</text><path fill="none" d="M112.096 225.418c6.73 30.52 15.934 72.272 22.664 102.832m-26.54-120.41-1.983 18.87 11.718-2.584zm138.67 13.671c-26.14 30.52-65.25 76.179-91.43 106.739M258.6 207.84l-16.266 9.768 9.114 7.806zM275 65.05v102.41m0-120.41-6 18h12z" style="stroke:#ffaf37;stroke-width:2"/></svg>
